svg/600/outlined/view_comfy_alt-fill.svg

<svg xmlns="http://www.w3.org/2000/svg" width="48" height="48" viewBox="0 -960 960 960"><path d="M69.26-549.26v-342.045h342.045v342.045H69.26Zm0 480v-342.045h342.045V-69.26H69.26Zm480-480v-342.045h342.045v342.045H549.26Zm0 480v-342.045h342.045V-69.26H549.26Z"/></svg>

<svg xmlns="http://www.w3.org/2000/svg" width="48" height="48" viewBox="0 -960 960 960"><path d="M69.26-549.26V-891.3H411.3v342.04H69.26Zm0 480V-411.3H411.3v342.04H69.26Zm480-480V-891.3H891.3v342.04H549.26Zm0 480V-411.3H891.3v342.04H549.26Z"/></svg>
